public/uploads/icons/figma-svgrepo-com (1).svg

<svg fill="none" height="800" viewBox="0 0 24 24" width="800" xmlns="http://www.w3.org/2000/svg"><path d="m11.9999 8.66667h-3.33332m3.33332 0v-6.66667h-3.33331c-1.84095 0-3.33334 1.49238-3.33334 3.33333s1.49238 3.33334 3.33333 3.33334m3.33332 0v6.66663h-3.33332m3.33332-6.66663h3.3334m-6.66672 0c-1.84095 0-3.33333 1.49243-3.33333 3.33333s1.49238 3.3333 3.33333 3.3333m0 0c-1.84094 0-3.33333 1.4924-3.33333 3.3334 0 1.8409 1.49239 3.3333 3.33334 3.3333 1.84091 0 3.33331-1.4924 3.33331-3.3333m3.3334-10.00003c-1.841 0-3.3334 1.49243-3.3334 3.33333s1.4924 3.3333 3.3334 3.3333c1.8409 0 3.3333-1.4924 3.3333-3.3333s-1.4924-3.33333-3.3333-3.33333zm0 0c1.8409 0 3.3333-1.49239 3.3333-3.33334s-1.4924-3.33333-3.3333-3.33333" stroke="#1c274c" stroke-linecap="round" stroke-linejoin="round" stroke-width="1.5"/></svg>

<?xml version="1.0" encoding="utf-8"?><!-- Uploaded to: SVG Repo, www.svgrepo.com, Generator: SVG Repo Mixer Tools -->
<svg width="800px" height="800px" viewBox="0 0 24 24" fill="none" xmlns="http://www.w3.org/2000/svg">
<path d="M11.9999 8.66667H8.66658M11.9999 8.66667V2H8.66659C6.82564 2 5.33325 3.49238 5.33325 5.33333C5.33325 7.17428 6.82563 8.66667 8.66658 8.66667M11.9999 8.66667V15.3333H8.66658M11.9999 8.66667L15.3333 8.66667M8.66658 8.66667C6.82563 8.66667 5.33325 10.1591 5.33325 12C5.33325 13.8409 6.82563 15.3333 8.66658 15.3333M8.66658 15.3333C6.82564 15.3333 5.33325 16.8257 5.33325 18.6667C5.33325 20.5076 6.82564 22 8.66659 22C10.5075 22 11.9999 20.5076 11.9999 18.6667M15.3333 8.66667C13.4923 8.66667 11.9999 10.1591 11.9999 12C11.9999 13.8409 13.4923 15.3333 15.3333 15.3333C17.1742 15.3333 18.6666 13.8409 18.6666 12C18.6666 10.1591 17.1742 8.66667 15.3333 8.66667ZM15.3333 8.66667C17.1742 8.66667 18.6666 7.17428 18.6666 5.33333C18.6666 3.49238 17.1742 2 15.3333 2" stroke="#1C274C" stroke-width="1.5" stroke-linecap="round" stroke-linejoin="round"/>
</svg>
